X: 37810
T: Sonny Brogan's
R: jig
M: 6/8
K: Adorian
cBA c2c|dcd ege|A2A cde|dcA AAG|
EAA cBc|dcd ege|a2a ged|1 cAG A3:|2 cAG Acd||
|:eaa aba|gef g3|eaa aba|ged cAA|
eaa aba|gef g3|a2a ged|1 cAG Acd:|2 cAG A3||
^c3 cBc|d^cd ege|A2A cde|dcA AAG|
EAA c2c|d2d ege|a2a ged|cAG A3|
cBA c2c|dcd ege|A2A cde|dcA AAG|
EAA cBc|dcd ege|a2a ged|cAG Acd||

